public/img/next/footer-tentacli.svg

<svg width="624" height="503" viewBox="0 0 624 503" fill="none" xmlns="http://www.w3.org/2000/svg">
<g clip-path="url(#clip0_48_2732)">
<path d="M573.287 633.232C654.203 484.727 617.973 365.183 549.618 334.341C481.262 303.499 415.162 348.057 366.967 267.318C318.772 186.579 386.112 154.503 400.604 133.474C415.096 112.446 400.914 81.5534 371.6 80.4972C359.518 80.0885 358.008 81.7508 351.05 79.9569C359.682 91.1721 366.24 88.8231 376.872 91.7672C387.504 94.7113 396.101 113.129 364.453 126.36C332.805 139.59 287.27 174.634 287.076 235.981C286.849 309.062 331.213 391.164 414.393 405.033C497.573 418.902 503.322 458.984 479.175 510.948" fill="url(#paint0_radial_48_2732)"/>
<path d="M414.762 405.522C331.562 391.613 287.157 309.461 287.353 236.351C287.523 174.981 333.052 139.941 364.7 126.719C385.386 118.092 388.859 107.207 385.854 99.8604C397.666 115.209 382.39 129.416 342.037 155.239C299.071 182.74 285.243 232.993 318.122 301.691C350.263 368.814 431.861 358.903 497.956 383.193C564.051 407.483 560.359 507.751 536.08 584.893L479.572 511.47C503.729 459.531 497.963 419.431 414.762 405.522Z" fill="url(#paint1_linear_48_2732)" fill-opacity="0.4"/>
<path d="M67.1148 244.342C6.35083 302.962 -36.8851 433.342 77.1149 624.342L363.115 614.342C288.615 556.509 153.315 416.842 208.115 320.842C276.615 200.842 239.615 133.342 208.115 100.842C176.615 68.3424 142.447 51.2684 155.115 32.8424C157.874 28.8294 167.704 26.1645 174.115 31.3424C180.484 36.4867 183.445 49.4434 182.615 54.8424C191.782 48.5091 203.615 26.8424 184.615 9.3424C154.68 -18.2288 94.6148 19.3424 139.615 68.3424C184.615 117.342 109.615 203.342 67.1148 244.342Z" fill="url(#paint2_radial_48_2732)"/>
<path fill-rule="evenodd" clip-rule="evenodd" d="M183.084 54.5066C184.676 50.476 186.414 44.6358 186.115 39.8426C185.615 31.8426 178.115 14.8426 160.615 18.8426C143.115 22.8426 140.615 40.3426 152.115 52.3426C152.735 52.9902 153.526 53.7878 154.464 54.7337C170.907 71.3132 232.508 133.428 213.115 231.343C206.098 266.77 187.833 295.519 167.926 326.853C129.674 387.062 85.3566 456.818 103.115 601.843C104.035 609.36 105.213 616.511 106.629 623.311L363.115 614.343C288.615 556.509 153.315 416.843 208.115 320.843C276.615 200.843 239.615 133.343 208.115 100.843C198.736 91.1666 189.122 82.8579 180.577 75.4738C160.421 58.0561 146.218 45.7827 155.115 32.8426C157.874 28.8296 167.704 26.1647 174.115 31.3426C180.484 36.4869 183.445 49.4436 182.615 54.8426C182.77 54.735 182.927 54.623 183.084 54.5066Z" fill="url(#paint3_linear_48_2732)" fill-opacity="0.4"/>
<path d="M4.85537 507.591C70.479 598 183.022 627.17 264.247 585.476C328.694 552.441 386.939 467.88 359.603 386.071C339.95 327.253 242.653 328.707 229.66 280.301C225.747 265.721 227.332 251.65 240.001 243.502C248.326 238.138 263.723 239.574 265.709 248.548C267.695 257.522 258.678 265.149 258.678 265.149C261.631 264.734 264.458 263.676 266.959 262.051C269.46 260.426 271.575 258.273 273.155 255.742C280.282 244.632 277.634 231.257 261.668 226.646C237.758 219.738 214.872 226.507 199.847 249.693C182.542 276.433 189.275 315.28 208.693 337.427C233.525 365.723 253.055 362.765 271.819 389.428C288.705 413.358 293.139 438.915 280.378 460.688C258.286 498.424 208.761 517.119 154.874 504.983L4.85537 507.591Z" fill="url(#paint4_radial_48_2732)"/>
<path d="M154.942 504.86L57.8451 506.548C68.0389 515.248 127.011 563.719 205.202 549.747C219.653 547.171 289.501 534.993 310.251 478.363C319.332 453.641 320.448 418.715 303.26 392.453C284.435 363.75 260.026 370.16 228.865 329.681C217.503 314.923 210.023 299.989 207.886 282.454C206.764 272.735 204.976 257.39 214.546 243.898C226.387 227.218 247.206 225.154 254.294 224.902C233.158 221.371 213.424 228.944 199.985 249.643C182.655 276.376 189.396 315.211 208.84 337.351C233.705 365.638 253.262 362.681 272.052 389.335C288.961 413.258 293.4 438.807 280.62 460.574C258.497 498.3 208.903 516.991 154.942 504.86Z" fill="url(#paint5_linear_48_2732)" fill-opacity="0.4"/>
</g>
<defs>
<radialGradient id="paint0_radial_48_2732" cx="0" cy="0" r="1" gradientUnits="userSpaceOnUse" gradientTransform="translate(609.054 352.351) rotate(-154.805) scale(513.806 677.003)">
<stop stop-color="#CA72B7"/>
<stop offset="0.237847" stop-color="#914680"/>
<stop offset="1" stop-color="#3F2660"/>
</radialGradient>
<linearGradient id="paint1_linear_48_2732" x1="531.011" y1="288.469" x2="326.508" y2="429.877" gradientUnits="userSpaceOnUse">
<stop stop-color="#272531"/>
<stop offset="1" stop-color="#272531" stop-opacity="0"/>
</linearGradient>
<radialGradient id="paint2_radial_48_2732" cx="0" cy="0" r="1" gradientUnits="userSpaceOnUse" gradientTransform="translate(130.914 -25.802) rotate(67.3894) scale(739.359 849.992)">
<stop stop-color="#CA72B7"/>
<stop offset="0.237847" stop-color="#914680"/>
<stop offset="1" stop-color="#3F2660"/>
</radialGradient>
<linearGradient id="paint3_linear_48_2732" x1="231.096" y1="18.2422" x2="423.782" y2="714.33" gradientUnits="userSpaceOnUse">
<stop stop-color="#272531"/>
<stop offset="1" stop-color="#272531" stop-opacity="0"/>
</linearGradient>
<radialGradient id="paint4_radial_48_2732" cx="0" cy="0" r="1" gradientUnits="userSpaceOnUse" gradientTransform="translate(242.853 618.81) rotate(-125.887) scale(505.125 767.691)">
<stop stop-color="#CA72B7"/>
<stop offset="0.237847" stop-color="#914680"/>
<stop offset="1" stop-color="#3F2660"/>
</radialGradient>
<linearGradient id="paint5_linear_48_2732" x1="188.656" y1="552.08" x2="121.641" y2="157.306" gradientUnits="userSpaceOnUse">
<stop stop-color="#272531"/>
<stop offset="1" stop-color="#272531" stop-opacity="0"/>
</linearGradient>
<clipPath id="clip0_48_2732">
<rect width="624" height="503" fill="white"/>
</clipPath>
</defs>
</svg>

<svg width="624" height="503" fill="none" xmlns="http://www.w3.org/2000/svg"><g clip-path="url(#a)"><path d="M573.287 633.232c80.916-148.505 44.686-268.049-23.669-298.891-68.356-30.842-134.456 13.716-182.651-67.023-48.195-80.739 19.145-112.815 33.637-133.844 14.492-21.028.31-51.92-29.004-52.977-12.082-.409-13.592 1.254-20.55-.54 8.632 11.215 15.19 8.866 25.822 11.81 10.632 2.944 19.229 21.362-12.419 34.593-31.648 13.23-77.183 48.274-77.377 109.621-.227 73.081 44.137 155.183 127.317 169.052 83.18 13.869 88.929 53.951 64.782 105.915" fill="url(#b)"/><path d="M414.762 405.522c-83.2-13.909-127.605-96.061-127.409-169.171.17-61.37 45.699-96.41 77.347-109.632 20.686-8.627 24.159-19.512 21.154-26.859 11.812 15.349-3.464 29.556-43.817 55.379-42.966 27.501-56.794 77.754-23.915 146.452 32.141 67.123 113.739 57.212 179.834 81.502 66.095 24.29 62.403 124.558 38.124 201.7l-56.508-73.423c24.157-51.939 18.391-92.039-64.81-105.948z" fill="url(#c)" fill-opacity=".4"/><path d="M67.115 244.342c-60.764 58.62-104 189 10 380l286-10c-74.5-57.833-209.8-197.5-155-293.5 68.5-120 31.5-187.5 0-220s-65.668-49.574-53-68c2.759-4.013 12.589-6.677 19-1.5 6.369 5.145 9.33 18.101 8.5 23.5 9.167-6.333 21-28 2-45.5-29.935-27.57-90 10-45 59s-30 135-72.5 176z" fill="url(#d)"/><path fill-rule="evenodd" clip-rule="evenodd" d="M183.084 54.507c1.592-4.031 3.33-9.871 3.031-14.664-.5-8-8-25-25.5-21s-20 21.5-8.5 33.5c.62.647 1.411 1.445 2.349 2.39 16.443 16.58 78.044 78.695 58.651 176.61-7.017 35.427-25.282 64.176-45.189 95.51-38.252 60.209-82.57 129.965-64.811 274.99.92 7.517 2.098 14.668 3.514 21.468l256.486-8.968c-74.5-57.834-209.8-197.5-155-293.5 68.5-120 31.5-187.5 0-220-9.379-9.676-18.993-17.985-27.538-25.37-20.156-17.417-34.359-29.69-25.462-42.63 2.759-4.013 12.589-6.678 19-1.5 6.369 5.144 9.33 18.1 8.5 23.5.155-.108.312-.22.469-.336z" fill="url(#e)" fill-opacity=".4"/><path d="M4.855 507.591C70.48 598 183.022 627.17 264.247 585.476c64.447-33.035 122.692-117.596 95.356-199.405-19.653-58.818-116.95-57.364-129.943-105.77-3.913-14.58-2.328-28.651 10.341-36.799 8.325-5.364 23.722-3.928 25.708 5.046 1.986 8.974-7.031 16.601-7.031 16.601a20.416 20.416 0 0 0 14.477-9.407c7.127-11.11 4.479-24.485-11.487-29.096-23.91-6.908-46.796-.139-61.821 23.047-17.305 26.74-10.572 65.587 8.846 87.734 24.832 28.296 44.362 25.338 63.126 52.001 16.886 23.93 21.32 49.487 8.559 71.26-22.092 37.736-71.617 56.431-125.504 44.295L4.855 507.591z" fill="url(#f)"/><path d="m154.942 504.86-97.097 1.688c10.194 8.7 69.166 57.171 147.357 43.199 14.451-2.576 84.299-14.754 105.049-71.384 9.081-24.722 10.197-59.648-6.991-85.91-18.825-28.703-43.234-22.293-74.395-62.772-11.362-14.758-18.842-29.692-20.979-47.227-1.122-9.719-2.91-25.064 6.66-38.556 11.841-16.68 32.66-18.744 39.748-18.996-21.136-3.531-40.87 4.042-54.309 24.741-17.33 26.733-10.589 65.568 8.855 87.708 24.865 28.287 44.422 25.33 63.212 51.984 16.909 23.923 21.348 49.472 8.568 71.239-22.123 37.726-71.717 56.417-125.678 44.286z" fill="url(#g)" fill-opacity=".4"/></g><defs><radialGradient id="b" cx="0" cy="0" r="1" gradientUnits="userSpaceOnUse" gradientTransform="matrix(-464.92466 -218.72738 288.2004 -612.59578 609.054 352.351)"><stop stop-color="#CA72B7"/><stop offset=".238" stop-color="#914680"/><stop offset="1" stop-color="#3F2660"/></radialGradient><radialGradient id="d" cx="0" cy="0" r="1" gradientUnits="userSpaceOnUse" gradientTransform="rotate(67.389 84.805 85.267) scale(739.359 849.992)"><stop stop-color="#CA72B7"/><stop offset=".238" stop-color="#914680"/><stop offset="1" stop-color="#3F2660"/></radialGradient><radialGradient id="f" cx="0" cy="0" r="1" gradientUnits="userSpaceOnUse" gradientTransform="rotate(-125.887 279.46 247.384) scale(505.125 767.691)"><stop stop-color="#CA72B7"/><stop offset=".238" stop-color="#914680"/><stop offset="1" stop-color="#3F2660"/></radialGradient><linearGradient id="c" x1="531.011" y1="288.469" x2="326.508" y2="429.877" gradientUnits="userSpaceOnUse"><stop stop-color="#272531"/><stop offset="1" stop-color="#272531" stop-opacity="0"/></linearGradient><linearGradient id="e" x1="231.096" y1="18.242" x2="423.782" y2="714.33" gradientUnits="userSpaceOnUse"><stop stop-color="#272531"/><stop offset="1" stop-color="#272531" stop-opacity="0"/></linearGradient><linearGradient id="g" x1="188.656" y1="552.08" x2="121.641" y2="157.306" gradientUnits="userSpaceOnUse"><stop stop-color="#272531"/><stop offset="1" stop-color="#272531" stop-opacity="0"/></linearGradient><clipPath id="a"><path fill="#fff" d="M0 0h624v503H0z"/></clipPath></defs></svg>
